assets/efishery/sales.svg

<svg width="24" height="25" viewBox="0 0 24 25" fill="none" xmlns="http://www.w3.org/2000/svg">
<path fill-rule="evenodd" clip-rule="evenodd" d="M7 6.02344C7 3.95237 8.67893 2.27344 10.75 2.27344C12.8211 2.27344 14.5 3.95237 14.5 6.02344V8.02344C14.5 10.0945 12.8211 11.7734 10.75 11.7734C8.67893 11.7734 7 10.0945 7 8.02344V6.02344ZM10.3589 3.8073C9.3027 3.99242 8.5 4.91419 8.5 6.02344V6.10572C8.8788 5.93302 9.22574 5.63344 9.53935 5.24143C9.90319 4.78662 10.1784 4.25793 10.3589 3.8073ZM11.863 4.06756C11.8067 4.2283 11.7398 4.40013 11.6621 4.57846C11.7121 4.62636 11.772 4.67343 11.843 4.71516C12.0093 4.81282 12.2737 4.90325 12.6793 4.86514C12.4804 4.53439 12.1987 4.25901 11.863 4.06756ZM10.7107 6.17847C10.7829 6.08817 10.8522 5.9961 10.9186 5.90287C10.9711 5.93953 11.0259 5.9748 11.0831 6.0084C11.5859 6.30385 12.2284 6.44671 13 6.33705V8.02344C13 9.26608 11.9926 10.2734 10.75 10.2734C9.50736 10.2734 8.5 9.26608 8.5 8.02344V7.68581C9.44946 7.46186 10.1853 6.8352 10.7107 6.17847Z" fill="#1D1D1D"/>
<path fill-rule="evenodd" clip-rule="evenodd" d="M6 12.9015C5.12611 13.2103 4.5 14.0438 4.5 15.0234V18.2734H9.75C10.1642 18.2734 10.5 18.6092 10.5 19.0234C10.5 19.4377 10.1642 19.7734 9.75 19.7734H3.75C3.33579 19.7734 3 19.4377 3 19.0234V15.0234C3 12.9524 4.67893 11.2734 6.75 11.2734H7.25C7.53235 11.2734 7.79062 11.432 7.91849 11.6834L7.92131 11.6887C7.92516 11.6958 7.93269 11.7094 7.94401 11.7286C7.96668 11.7671 8.00421 11.8274 8.05733 11.9024C8.16414 12.0532 8.33029 12.258 8.56077 12.4629C9.01543 12.867 9.71959 13.2734 10.75 13.2734C11.7804 13.2734 12.4846 12.867 12.9392 12.4629C13.1697 12.258 13.3359 12.0532 13.4427 11.9024C13.4958 11.8274 13.5333 11.7671 13.556 11.7286C13.5673 11.7094 13.5748 11.6958 13.5787 11.6887L13.5815 11.6834C13.7094 11.432 13.9677 11.2734 14.25 11.2734H14.75C16.8211 11.2734 18.5 12.9524 18.5 15.0234V15.5234C18.5 15.9377 18.1642 16.2734 17.75 16.2734C17.3358 16.2734 17 15.9377 17 15.5234V15.0234C17 14.0438 16.3739 13.2103 15.5 12.9015V14.9054C15.5 16.2063 14.131 17.0524 12.9674 16.4707L10.75 15.362L8.53262 16.4707C7.36905 17.0524 6 16.2063 6 14.9054V12.9015ZM7.5 13.5259V14.9054C7.5 15.0912 7.69558 15.2121 7.8618 15.129L9.11581 14.502C8.46647 14.2733 7.95239 13.929 7.56423 13.584C7.54242 13.5646 7.52101 13.5452 7.5 13.5259ZM12.3842 14.502L13.6382 15.129C13.8044 15.2121 14 15.0912 14 14.9054V13.5259C13.979 13.5452 13.9576 13.5646 13.9358 13.584C13.5476 13.929 13.0335 14.2733 12.3842 14.502Z" fill="#1D1D1D"/>
<path d="M16.0207 20.7027V19.2227H15.6787V20.7027H16.0207Z" fill="#1D1D1D"/>
<path d="M13.5988 20.7167C13.4961 20.7167 13.4041 20.7 13.3228 20.6667C13.2414 20.6333 13.1761 20.584 13.1268 20.5187C13.0788 20.4533 13.0534 20.3747 13.0508 20.2827H13.4148C13.4201 20.3347 13.4381 20.3747 13.4688 20.4027C13.4994 20.4293 13.5394 20.4427 13.5888 20.4427C13.6394 20.4427 13.6794 20.4313 13.7088 20.4087C13.7381 20.3847 13.7528 20.352 13.7528 20.3107C13.7528 20.276 13.7408 20.2473 13.7168 20.2247C13.6941 20.202 13.6654 20.1833 13.6308 20.1687C13.5974 20.154 13.5494 20.1373 13.4868 20.1187C13.3961 20.0907 13.3221 20.0627 13.2648 20.0347C13.2074 20.0067 13.1581 19.9653 13.1168 19.9107C13.0754 19.856 13.0548 19.7847 13.0548 19.6967C13.0548 19.566 13.1021 19.464 13.1968 19.3907C13.2914 19.316 13.4148 19.2787 13.5668 19.2787C13.7214 19.2787 13.8461 19.316 13.9408 19.3907C14.0354 19.464 14.0861 19.5667 14.0928 19.6987H13.7228C13.7201 19.6533 13.7034 19.618 13.6728 19.5927C13.6421 19.566 13.6028 19.5527 13.5548 19.5527C13.5134 19.5527 13.4801 19.564 13.4548 19.5867C13.4294 19.608 13.4168 19.6393 13.4168 19.6807C13.4168 19.726 13.4381 19.7613 13.4808 19.7867C13.5234 19.812 13.5901 19.8393 13.6808 19.8687C13.7714 19.8993 13.8448 19.9287 13.9008 19.9567C13.9581 19.9847 14.0074 20.0253 14.0488 20.0787C14.0901 20.132 14.1108 20.2007 14.1108 20.2847C14.1108 20.3647 14.0901 20.4373 14.0488 20.5027C14.0088 20.568 13.9501 20.62 13.8728 20.6587C13.7954 20.6973 13.7041 20.7167 13.5988 20.7167Z" fill="#1D1D1D"/>
<path fill-rule="evenodd" clip-rule="evenodd" d="M14.2533 20.1427C14.2533 20.028 14.2746 19.9273 14.3173 19.8407C14.3612 19.754 14.4206 19.6873 14.4952 19.6407C14.5699 19.594 14.6532 19.5707 14.7452 19.5707C14.8239 19.5707 14.8926 19.5867 14.9513 19.6187C15.0112 19.6507 15.0573 19.6927 15.0892 19.7447V19.5867H15.4312V20.7027H15.0892V20.5447C15.0559 20.5967 15.0093 20.6387 14.9493 20.6707C14.8906 20.7027 14.8219 20.7187 14.7432 20.7187C14.6526 20.7187 14.5699 20.6953 14.4952 20.6487C14.4206 20.6007 14.3612 20.5333 14.3173 20.4467C14.2746 20.3587 14.2533 20.2573 14.2533 20.1427ZM15.0892 20.1447C15.0892 20.0593 15.0653 19.992 15.0173 19.9427C14.9706 19.8933 14.9132 19.8687 14.8453 19.8687C14.7773 19.8687 14.7192 19.8933 14.6713 19.9427C14.6246 19.9907 14.6012 20.0573 14.6012 20.1427C14.6012 20.228 14.6246 20.296 14.6713 20.3467C14.7192 20.396 14.7773 20.4207 14.8453 20.4207C14.9132 20.4207 14.9706 20.396 15.0173 20.3467C15.0653 20.2973 15.0892 20.23 15.0892 20.1447Z" fill="#1D1D1D"/>
<path fill-rule="evenodd" clip-rule="evenodd" d="M17.3205 20.1267C17.3205 20.1587 17.3185 20.192 17.3145 20.2267H16.5405C16.5458 20.296 16.5678 20.3493 16.6065 20.3867C16.6465 20.4227 16.6952 20.4407 16.7525 20.4407C16.8378 20.4407 16.8972 20.4047 16.9305 20.3327H17.2945C17.2758 20.406 17.2418 20.472 17.1925 20.5307C17.1445 20.5893 17.0838 20.6353 17.0105 20.6687C16.9372 20.702 16.8552 20.7187 16.7645 20.7187C16.6552 20.7187 16.5578 20.6953 16.4725 20.6487C16.3872 20.602 16.3205 20.5353 16.2725 20.4487C16.2245 20.362 16.2005 20.2607 16.2005 20.1447C16.2005 20.0287 16.2238 19.9273 16.2705 19.8407C16.3185 19.754 16.3852 19.6873 16.4705 19.6407C16.5558 19.594 16.6538 19.5707 16.7645 19.5707C16.8725 19.5707 16.9685 19.5933 17.0525 19.6387C17.1365 19.684 17.2018 19.7487 17.2485 19.8327C17.2965 19.9167 17.3205 20.0147 17.3205 20.1267ZM16.9705 20.0367C16.9705 19.978 16.9505 19.9313 16.9105 19.8967C16.8705 19.862 16.8205 19.8447 16.7605 19.8447C16.7032 19.8447 16.6545 19.8613 16.6145 19.8947C16.5758 19.928 16.5518 19.9753 16.5425 20.0367H16.9705Z" fill="#1D1D1D"/>
<path d="M17.6949 20.6687C17.7709 20.702 17.8576 20.7187 17.9549 20.7187C18.0456 20.7187 18.1249 20.704 18.1929 20.6747C18.2623 20.6453 18.3149 20.6053 18.3509 20.5547C18.3883 20.5027 18.4069 20.444 18.4069 20.3787C18.4056 20.3013 18.3849 20.24 18.3449 20.1947C18.3063 20.148 18.2609 20.1147 18.2089 20.0947C18.1569 20.0733 18.0896 20.052 18.0069 20.0307C17.9349 20.0147 17.8816 19.9987 17.8469 19.9827C17.8136 19.9667 17.7969 19.9427 17.7969 19.9107C17.7969 19.884 17.8076 19.8633 17.8289 19.8487C17.8503 19.8327 17.8809 19.8247 17.9209 19.8247C17.9676 19.8247 18.0049 19.836 18.0329 19.8587C18.0623 19.8813 18.0796 19.912 18.0849 19.9507H18.4009C18.3889 19.836 18.3423 19.744 18.2609 19.6747C18.1809 19.6053 18.0709 19.5707 17.9309 19.5707C17.8363 19.5707 17.7543 19.586 17.6849 19.6167C17.6169 19.6473 17.5649 19.6893 17.5289 19.7427C17.4943 19.7947 17.4769 19.8527 17.4769 19.9167C17.4769 19.9927 17.4963 20.0533 17.5349 20.0987C17.5736 20.1427 17.6196 20.1753 17.6729 20.1967C17.7263 20.2167 17.7929 20.236 17.8729 20.2547C17.9476 20.2733 18.0016 20.2907 18.0349 20.3067C18.0683 20.3213 18.0849 20.3447 18.0849 20.3767C18.0849 20.4033 18.0729 20.4253 18.0489 20.4427C18.0263 20.4587 17.9936 20.4667 17.9509 20.4667C17.9043 20.4667 17.8649 20.4547 17.8329 20.4307C17.8009 20.4067 17.7829 20.3753 17.7789 20.3367H17.4409C17.4463 20.4087 17.4709 20.474 17.5149 20.5327C17.5589 20.59 17.6189 20.6353 17.6949 20.6687Z" fill="#1D1D1D"/>
<path fill-rule="evenodd" clip-rule="evenodd" d="M11 19.0234C11 18.0569 11.7835 17.2734 12.75 17.2734H18.75C19.7165 17.2734 20.5 18.0569 20.5 19.0234V21.0234C20.5 21.9899 19.7165 22.7734 18.75 22.7734H12.75C11.7835 22.7734 11 21.9899 11 21.0234V19.0234ZM12.75 18.7734C12.6119 18.7734 12.5 18.8854 12.5 19.0234V21.0234C12.5 21.1615 12.6119 21.2734 12.75 21.2734H18.75C18.8881 21.2734 19 21.1615 19 21.0234V19.0234C19 18.8854 18.8881 18.7734 18.75 18.7734H12.75Z" fill="#1D1D1D"/>
</svg>

<svg viewBox="0 0 24 25" xmlns="http://www.w3.org/2000/svg">
  <path fill-rule="evenodd" clip-rule="evenodd" d="M7 6.023a3.75 3.75 0 1 1 7.5 0v2a3.75 3.75 0 1 1-7.5 0v-2zm3.359-2.216A2.25 2.25 0 0 0 8.5 6.023v.083c.379-.173.726-.473 1.04-.865.363-.454.638-.983.819-1.434zm1.504.26c-.056.161-.123.333-.2.511.05.048.109.095.18.137.166.098.43.188.836.15a2.26 2.26 0 0 0-.816-.797zm-1.152 2.111c.072-.09.141-.182.208-.275.052.037.107.072.164.105.503.296 1.145.439 1.917.329v1.686a2.25 2.25 0 0 1-4.5 0v-.337c.95-.224 1.685-.85 2.21-1.508z"/>
  <path fill-rule="evenodd" clip-rule="evenodd" d="M6 12.902a2.25 2.25 0 0 0-1.5 2.121v3.25h5.25a.75.75 0 0 1 0 1.5h-6a.75.75 0 0 1-.75-.75v-4a3.75 3.75 0 0 1 3.75-3.75h.5a.75.75 0 0 1 .668.41l.003.006.023.04a3.348 3.348 0 0 0 .617.734c.454.404 1.159.81 2.189.81s1.735-.406 2.19-.81a3.347 3.347 0 0 0 .616-.734l.023-.04.002-.006a.75.75 0 0 1 .669-.41h.5a3.75 3.75 0 0 1 3.75 3.75v.5a.75.75 0 1 1-1.5 0v-.5a2.25 2.25 0 0 0-1.5-2.121v2.003a1.75 1.75 0 0 1-2.533 1.566l-2.217-1.109-2.217 1.109A1.75 1.75 0 0 1 6 14.905v-2.003zm1.5.624v1.38a.25.25 0 0 0 .362.223l1.254-.627a4.67 4.67 0 0 1-1.616-.976zm4.884.976 1.254.627a.25.25 0 0 0 .362-.224v-1.38l-.064.059a4.67 4.67 0 0 1-1.552.918z"/>
  <path d="M16.02 20.703v-1.48h-.341v1.48h.342zM13.599 20.717a.723.723 0 0 1-.276-.05.408.408 0 0 1-.272-.384h.364a.18.18 0 0 0 .054.12c.03.026.07.04.12.04.05 0 .09-.012.12-.034a.12.12 0 0 0 .044-.098.113.113 0 0 0-.036-.086.266.266 0 0 0-.086-.056 1.289 1.289 0 0 0-.144-.05 1.576 1.576 0 0 1-.222-.084.41.41 0 0 1-.148-.124.345.345 0 0 1-.062-.214c0-.131.047-.233.142-.306a.58.58 0 0 1 .37-.112c.154 0 .28.037.374.112a.395.395 0 0 1 .152.308h-.37a.142.142 0 0 0-.05-.106.173.173 0 0 0-.118-.04.144.144 0 0 0-.1.034c-.026.021-.038.052-.038.094 0 .045.021.08.064.106.042.025.11.052.2.082.09.03.164.06.22.088a.418.418 0 0 1 .148.122.327.327 0 0 1 .062.206.4.4 0 0 1-.062.218.42.42 0 0 1-.176.156.607.607 0 0 1-.274.058z"/>
  <path fill-rule="evenodd" clip-rule="evenodd" d="M14.253 20.143c0-.115.022-.216.064-.302a.462.462 0 0 1 .428-.27c.079 0 .148.016.206.048.06.032.106.074.138.126v-.158h.342v1.116h-.342v-.158a.367.367 0 0 1-.14.126.424.424 0 0 1-.206.048.46.46 0 0 1-.426-.272.688.688 0 0 1-.064-.304zm.836.002a.277.277 0 0 0-.072-.202.227.227 0 0 0-.172-.074.233.233 0 0 0-.174.074.275.275 0 0 0-.07.2.29.29 0 0 0 .07.204c.048.049.106.074.174.074a.228.228 0 0 0 .172-.074.277.277 0 0 0 .072-.202zM17.32 20.127a.873.873 0 0 1-.006.1h-.773c.005.069.027.122.066.16a.21.21 0 0 0 .146.054c.085 0 .144-.036.177-.108h.364a.498.498 0 0 1-.284.336.588.588 0 0 1-.245.05.6.6 0 0 1-.293-.07.499.499 0 0 1-.2-.2.618.618 0 0 1-.071-.304c0-.116.023-.218.07-.304a.497.497 0 0 1 .2-.2.602.602 0 0 1 .294-.07c.107 0 .203.022.287.068.085.045.15.11.197.194a.582.582 0 0 1 .072.294zm-.35-.09a.176.176 0 0 0-.06-.14.22.22 0 0 0-.15-.052.22.22 0 0 0-.146.05.224.224 0 0 0-.072.142h.428z"/>
  <path d="M17.695 20.669c.076.033.163.05.26.05.09 0 .17-.015.238-.044a.36.36 0 0 0 .158-.12.294.294 0 0 0 .056-.176.275.275 0 0 0-.062-.184.328.328 0 0 0-.136-.1 1.582 1.582 0 0 0-.202-.064.848.848 0 0 1-.16-.048c-.033-.016-.05-.04-.05-.072a.07.07 0 0 1 .032-.062.151.151 0 0 1 .092-.024c.047 0 .084.011.112.034.03.022.047.053.052.092h.316a.403.403 0 0 0-.14-.276.487.487 0 0 0-.33-.104.604.604 0 0 0-.246.046.36.36 0 0 0-.156.126.307.307 0 0 0-.052.174c0 .076.02.136.058.182a.36.36 0 0 0 .138.098c.053.02.12.039.2.058a.92.92 0 0 1 .162.052c.033.014.05.038.05.07a.079.079 0 0 1-.036.066.169.169 0 0 1-.098.024.191.191 0 0 1-.118-.036.13.13 0 0 1-.054-.094h-.338c.005.072.03.137.074.196a.449.449 0 0 0 .18.136z"/>
  <path fill-rule="evenodd" clip-rule="evenodd" d="M11 19.023c0-.966.784-1.75 1.75-1.75h6c.966 0 1.75.784 1.75 1.75v2a1.75 1.75 0 0 1-1.75 1.75h-6a1.75 1.75 0 0 1-1.75-1.75v-2zm1.75-.25a.25.25 0 0 0-.25.25v2c0 .139.112.25.25.25h6a.25.25 0 0 0 .25-.25v-2a.25.25 0 0 0-.25-.25h-6z"/>
</svg>
